X:1
T:XVIII. My heart and tongue were twinnes,
T:XVIII. My heart and tongue were twinnes,
T:CANTUS.
T:John Dowland
C:John Dowland
L:1/8
M:3/2
K:Dmin
V:1 treble 
V:1
 A4 f4 e4 | d8 c2 B2 | A6 B2 c4 | c4 F4 G4 | (A8 A4) | A3 B c4 d4 | e6 g2 f4 | e4 d6 d2 | ^c12 | %9
w: My heart and|tongue were *|twinnes, at once|con- ceiv- ed,||Th'el- dest was my|heart, borne dumbe|by de- sti-|nie,|
w: Both knit in|one, and *|yet a sun-|der plac- ed,||what heart would speake|the tongue doth|full dis- co-|ver|
w: New found, and|one- ly *|found in Gods|and Kings, *||whose wordes are deedes,|but wordes, nor|deedes re- gar-|ded.|
 f2 e2 d4 d4 | e6 e2 d4 | c4 B6 B2 | A8 A4 | z2 A4 d4 ^c2 | f8 e2 g4 f3 e d4 ^c2 || d12 || %16
w: The * last my|tongue, of all|sweet thoughts be-|rea- ved:|Yet strung and|tunde to play hearts har- * mo-|nie.|
w: What * tongue doth|speake is of|the heart em-|bra- ced,|and both are|one to make a new found Lov-|er.|
w: Chaste * thoughts doe|mount and flye|with swift- est|wings, *|My love with|paine, my paine with losse re- ward-|ed.|
"^Conclusion:" z2 A2 e4 z2 c2 | f12 | c2 c2 d4 c3 B | A4 A8 | z2 A4 G2 d4 | ^c6 d2 e4- | %22
w: Then this be|sure,|Since it is true per-|fec- tion,|That ney- *|ther men *|
w: ||||||
w: ||||||
 e2 f2 g6 fe | f3 g a6 a2 | g2 f2 e2 d2 e4 d4 !fermata!d8 |] %25
w: * nor Gods, * *|nor * Gods can|force * * af- * fec- tion.|
w: |||
w: |||

